svgs/kakaotalk.svg

<svg width="192" height="192" viewBox="0 0 192 192" fill="none" xmlns="http://www.w3.org/2000/svg">
<path d="M46 166L40.1791 164.545C39.5869 166.914 40.4895 169.405 42.4616 170.846C44.4337 172.286 47.0818 172.387 49.1581 171.102L46 166ZM54.4939 132.024L60.3147 133.48C60.9831 130.806 59.7446 128.022 57.3118 126.727L54.4939 132.024ZM85.6741 141.44L86.3268 135.475C84.9958 135.33 83.6544 135.634 82.516 136.338L85.6741 141.44ZM164 84C164 111.44 134.999 136 96 136V148C138.739 148 176 120.625 176 84H164ZM28 84C28 56.5604 57.001 32 96 32V20C53.2608 20 16 47.3746 16 84H28ZM96 32C134.999 32 164 56.5604 164 84H176C176 47.3746 138.739 20 96 20V32ZM51.8209 167.455L60.3147 133.48L48.673 130.569L40.1791 164.545L51.8209 167.455ZM57.3118 126.727C39.1059 117.042 28 101.193 28 84H16C16 106.758 30.6619 126.143 51.676 137.322L57.3118 126.727ZM96 136C92.7137 136 89.4843 135.821 86.3268 135.475L85.0214 147.404C88.6128 147.797 92.2779 148 96 148V136ZM49.1581 171.102L88.8322 146.541L82.516 136.338L42.8419 160.898L49.1581 171.102Z" fill="black"/>
<path d="M96 110V62M96 62H72M96 62H120" stroke="black" stroke-width="12" stroke-linecap="round" stroke-linejoin="round"/>
</svg>

<svg xmlns="http://www.w3.org/2000/svg" width="192" height="192" fill="none" xmlns:v="https://vecta.io/nano"><path d="M46 166l-5.821-1.455a6 6 0 0 0 8.979 6.557L46 166zm8.494-33.976l5.821 1.456a6 6 0 0 0-3.003-6.753l-2.818 5.297zm31.18 9.416l.653-5.965a6.01 6.01 0 0 0-3.811.863l3.158 5.102zM164 84c0 27.44-29.001 52-68 52v12c42.739 0 80-27.375 80-64h-12zM28 84c0-27.44 29.001-52 68-52V20c-42.739 0-80 27.375-80 64h12zm68-52c38.999 0 68 24.56 68 52h12c0-36.625-37.261-64-80-64v12zM51.821 167.455l8.494-33.975-11.642-2.911-8.494 33.976 11.642 2.91zm5.491-40.728C39.106 117.042 28 101.193 28 84H16c0 22.758 14.662 42.143 35.676 53.322l5.636-10.595zM96 136a88.81 88.81 0 0 1-9.673-.525l-1.305 11.929A100.93 100.93 0 0 0 96 148v-12zm-46.842 35.102l39.674-24.561-6.316-10.203-39.674 24.56 6.316 10.204z" fill="#000"/><path d="M96 110V62m0 0H72m24 0h24" stroke="#000" stroke-width="12" stroke-linecap="round" stroke-linejoin="round"/></svg>
